X:4357
T:Downfall of the Ginn 
B:Walsh
M:3/2
L:1/8
N:
K:G
E4 G4 B4 | e2 dc BAGF G2 E2 | gfeg fe^df e2 B2| A2 cB AGFE ^D2 B,2|\ 
E4 G4 B4 | e2 dc BAGF G2 E2 | gfeg fe^df e2 BA| GFEG B,2 ^D2 E4:: \
G4 B4 d4| g2 fe dcBA B2 G2| bagb agfa g2 dc|BAGB D2 F2 E4|\
BA^G=F EdcB c2 A2|AGFE DcBA B2 G2| gfeg fe^df e2 BA| GFEG B,2 ^D2 E4:|
